X:9725
T:Lluita
C:Tradicional
S:Música Tradicional Asturiana, (C) Tello & Tito. Asturies, 2001.
S:http://pagina.de/MusTradAst <telloytito@asturies.org>
A:Asturies
Z:Danzas y Bailes I
M:6/8
L:1/8
Q:3/8=56
K:C
|CCC CDE|F3 z ED|G2 F E2 D|F3 C2 z|
|CCC CDE|F3 z ED|G2 F E2 D|C3 z 
"piu mosso"
E F|
|: GAG FED|E C2 z E F|GAG FED|[1 C3 z E F :|[2 C3 z3|


